X: 2
T: Crested Hens
R: waltz
M: 3/4
L: 1/8
K: Dmaj
E3 GFE | (B3 B)Bc | dcB edc | dcB AGF |
E3 GFE | (B3 B)Bc | dcB AGA | B3 GFD |
E3 GFE | (B3 B)Bc | dcB edc | dcB AGF |
E3 GFE | (B3 B)Bc | dcB AGA | (B3 B)ef ||
gBB ggB | (=c3 c)ef | gfa gfe | ^d2e2 f2 |
gBB ggB | (=c3 c)ef | gfa gfd | (e3 e)ef |
gBB ggB | (=c3 c)ef | gfa gfe | ^d2e2 f2 |
gBB ggB | (=c3 c)ef | gfa gfd | e3 GFD |]


Tune 562	Setting 562

